X:29
T:Hpps simple chords 63
M:3/4
L:1/8
K:A
e2 [AA,CE]>B c>d | e>c a>e [fD,F,A,]>g | a>f e>c a>e | [fD,F,A,]>g a>f e>c | A>c [BB,^DFA]>A G>F |
E2 (3EFG [AA,CE]>B | c>d e>c a>e | [fD,F,A,]>g a>f e>c | a>e [fD,F,A,]>a g>f |
e>d c>B [A2A,2C2E2] | c2 A2 e2 | [AA,CE]>B c>d e>c | a>e [fD,F,A,]>g a>f |
e>c a>e [fD,F,A,]>g | a>f e>c A>c | [BB,^DFA]>A G>F E2 | (3EFG [AA,CE]>B c>d |
e>c a>e [fD,F,A,]>g | a>f e>c a>e | [fD,F,A,]>a g>f e>d | c>B [A2A,2C2E2] c2 |
A2 B2 [BE,G,B,D]>c | d>e d>B G>B | [AA,CE]>c e>g a2 | e>g [aD,F,A,]>f d>f |
e>c A>c [BB,^DFA]>A | G>F E4 | [BE,G,B,D]>c d>e d>B | G>B [AA,CE]>c e>g |
a2 b>a [gE,G,B,]>b | g>e f>a f>^d | [e2E,2G,2B,2] e2 e2 | B2 [BE,G,B,D]>c d>e |
d>B G>B [AA,CE]>c | e>g a2 e>g | [aD,F,A,]>f d>f e>c | A>c [BB,^DFA]>A G>F |
E4 [BE,G,B,D]>c | d>e d>B G>B | [AA,CE]>c e>g a2 | b>a [gE,G,B,]>b g>e |
f>a f>^d [e2E,2G,2B,2] | e2 e2 |


